X:1
T:Title
%%score { 1 | 2 } { 3 | 4 }
L:1/8
Q:1/4=115
M:3/4
K:Ab
V:1 treble nm="Grand Piano, Staff"
V:2 treble 
V:3 bass nm="Choir Pad, Leighton (Ahira), SM"
V:4 bass 
V:1
 c2 c3 B | AB c4 | e2 e3 d | cB A4 | E2 E4 | F2 E2 c2 | B2 A2 G2 | F2 E4 | e2 e2 c2 | A2 E4 | %10
w: By~Unknown * *||||||||||
 E2 A4- | A4 z2 |] %12
w: ||
V:2
 A2 A3 E | CE A4 | A2 A3 G | AG z2 z2 | C2 C4 | D2 C2 A2 | G2 F2 E2 | D2 C4 | D2 C4 | C2 C4 | %10
 D2 C4- | C4 z2 |] %12
V:3
 C2 C3 A, | A,B,[K:treble] C4 | E2 E3 E | ED C4 | E,2 E,4 | F,2 E,2 C2 | B,2 A,2 G,2 | F,2 E,4 | %8
 E,2 E,4 | E,2 E,2 C2 | B,2 A,4- | A,4 z2 |] %12
V:4
 A,2 A,3 E, | C,E, A,4 | C2 C3 B, | A,E, A,,4 | A,,2 A,,4 | A,,2 A,,4 | A,,2 A,,4 | A,,2 A,,4 | %8
 G,,2 A,,4 | C,2 z2 z2 | E,2 A,,4- | A,,4 z2 |] %12

